gama.ui.shared/icons_svg/dark/gaml/_imports.svg

<?xml version="1.0" encoding="UTF-8" standalone="no"?>
<!DOCTYPE svg PUBLIC "-//W3C//DTD SVG 1.1//EN" "http://www.w3.org/Graphics/SVG/1.1/DTD/svg11.dtd">
<svg xmlns:dc="http://purl.org/dc/elements/1.1/" xmlns:xl="http://www.w3.org/1999/xlink" version="1.1" xmlns="http://www.w3.org/2000/svg" viewBox="-271.00783 -2833.0862 24 18" width="24" height="18">
  <defs/>
  <g id="SOURCES" stroke-dasharray="none" stroke="none" stroke-opacity="1" fill="none" fill-opacity="1">
    <title>SOURCES</title>
    <g id="SOURCES_New">
      <title>New</title>
      <g id="Group_10503">
        <g id="Graphic_10155"/>
        <g id="Group_10060">
          <title>file-import</title>
          <g id="Graphic_10061">
            <path d="M -270.65783 -2821.2862 C -270.46183 -2821.2862 -270.30783 -2821.1322 -270.30783 -2820.9362 L -270.30783 -2818.8362 C -270.30783 -2818.2552 -269.83883 -2817.7862 -269.25783 -2817.7862 L -261.55783 -2817.7862 C -260.97683 -2817.7862 -260.50783 -2818.2552 -260.50783 -2818.8362 L -260.50783 -2827.5862 L -262.95783 -2827.5862 C -263.15383 -2827.5862 -263.30783 -2827.7402 -263.30783 -2827.9362 L -263.30783 -2830.3862 L -269.25783 -2830.3862 C -269.83883 -2830.3862 -270.30783 -2829.9172 -270.30783 -2829.3362 L -270.30783 -2827.9362 C -270.30783 -2827.7402 -270.46183 -2827.5862 -270.65783 -2827.5862 C -270.85383 -2827.5862 -271.00783 -2827.7402 -271.00783 -2827.9362 L -271.00783 -2829.3362 C -271.00783 -2830.3022 -270.22383 -2831.0862 -269.25783 -2831.0862 L -262.97883 -2831.0862 C -262.88783 -2831.0862 -262.78983 -2831.0582 -262.71283 -2830.9812 L -259.91283 -2828.1812 C -259.83583 -2828.1042 -259.80783 -2828.0062 -259.80783 -2827.9152 L -259.80783 -2818.8362 C -259.80783 -2817.8702 -260.59183 -2817.0862 -261.55783 -2817.0862 L -269.25783 -2817.0862 C -270.22383 -2817.0862 -271.00783 -2817.8702 -271.00783 -2818.8362 L -271.00783 -2820.9362 C -271.00783 -2821.1322 -270.85383 -2821.2862 -270.65783 -2821.2862 Z M -262.60783 -2829.8892 L -262.60783 -2828.2862 L -261.00483 -2828.2862 Z M -265.20483 -2824.7862 L -266.70983 -2826.2912 C -266.84983 -2826.4312 -266.84983 -2826.6482 -266.70983 -2826.7882 C -266.56983 -2826.9282 -266.35283 -2826.9282 -266.21283 -2826.7882 L -264.11283 -2824.6882 C -263.97283 -2824.5482 -263.97283 -2824.3312 -264.11283 -2824.1912 L -266.21283 -2822.0912 C -266.35283 -2821.9512 -266.56983 -2821.9512 -266.70983 -2822.0912 C -266.84983 -2822.2312 -266.84983 -2822.4482 -266.70983 -2822.5882 L -265.20483 -2824.0932 L -270.65783 -2824.0932 C -270.85383 -2824.0932 -271.00783 -2824.2472 -271.00783 -2824.4432 C -271.00783 -2824.6392 -270.85383 -2824.7932 -270.65783 -2824.7932 L -265.20483 -2824.7932 Z" fill="#999"/>
          </g>
        </g>
      </g>
    </g>
  </g>
</svg>

<svg height="18" viewBox="-271.008 -2833.086 24 18" width="24" xmlns="http://www.w3.org/2000/svg"><path d="m-270.65783-2821.2862c.196 0 .35.154.35.35v2.1c0 .581.469 1.05 1.05 1.05h7.7c.581 0 1.05-.469 1.05-1.05v-8.75h-2.45c-.196 0-.35-.154-.35-.35v-2.45h-5.95c-.581 0-1.05.469-1.05 1.05v1.4c0 .196-.154.35-.35.35s-.35-.154-.35-.35v-1.4c0-.966.784-1.75 1.75-1.75h6.279c.091 0 .189.028.266.105l2.8 2.8c.077.077.105.175.105.266v9.079c0 .966-.784 1.75-1.75 1.75h-7.7c-.966 0-1.75-.784-1.75-1.75v-2.1c0-.196.154-.35.35-.35zm8.05-8.603v1.603h1.603zm-2.597 5.103-1.505-1.505c-.14-.14-.14-.357 0-.497s.357-.14.497 0l2.1 2.1c.14.14.14.357 0 .497l-2.1 2.1c-.14.14-.357.14-.497 0s-.14-.357 0-.497l1.505-1.505h-5.453c-.196 0-.35-.154-.35-.35s.154-.35.35-.35h5.453z" fill="#999"/></svg>
